packages/symbols/svgs/outline/scatter-chart-outline.svg

<svg width="24" height="24" viewBox="0 0 24 24" xmlns="http://www.w3.org/2000/svg">
<g id="scatter-chart-outline">
<path id="Vector" d="M7.31818 19.2727C4.93239 19.2727 3 17.3403 3 14.9545C3 12.5687 4.93239 10.6364 7.31818 10.6364C9.70398 10.6364 11.6364 12.5687 11.6364 14.9545C11.6364 17.3403 9.70398 19.2727 7.31818 19.2727ZM7.31818 12.7955C6.13068 12.7955 5.15909 13.767 5.15909 14.9545C5.15909 16.142 6.13068 17.1136 7.31818 17.1136C8.50568 17.1136 9.47727 16.142 9.47727 14.9545C9.47727 13.767 8.50568 12.7955 7.31818 12.7955ZM11.6364 10.6364C9.25057 10.6364 7.31818 8.70398 7.31818 6.31818C7.31818 3.93239 9.25057 2 11.6364 2C14.0222 2 15.9545 3.93239 15.9545 6.31818C15.9545 8.70398 14.0222 10.6364 11.6364 10.6364ZM11.6364 4.15909C10.4489 4.15909 9.47727 5.13068 9.47727 6.31818C9.47727 7.50568 10.4489 8.47727 11.6364 8.47727C12.8239 8.47727 13.7955 7.50568 13.7955 6.31818C13.7955 5.13068 12.8239 4.15909 11.6364 4.15909ZM17.6818 23.1591C15.296 23.1591 13.3636 21.2267 13.3636 18.8409C13.3636 16.4551 15.296 14.5227 17.6818 14.5227C20.0676 14.5227 22 16.4551 22 18.8409C22 21.2267 20.0676 23.1591 17.6818 23.1591ZM17.6818 16.6818C16.4943 16.6818 15.5227 17.6534 15.5227 18.8409C15.5227 20.0284 16.4943 21 17.6818 21C18.8693 21 19.8409 20.0284 19.8409 18.8409C19.8409 17.6534 18.8693 16.6818 17.6818 16.6818Z" fill="currentColor"/>
</g>
</svg>

<svg width="24" height="24" viewBox="0 0 24 24" xmlns="http://www.w3.org/2000/svg"><path d="M7.318 19.273A4.317 4.317 0 0 1 3 14.954a4.317 4.317 0 0 1 4.318-4.318 4.317 4.317 0 0 1 4.318 4.319 4.317 4.317 0 0 1-4.318 4.318Zm0-6.477a2.165 2.165 0 0 0-2.159 2.159c0 1.187.972 2.159 2.16 2.159a2.165 2.165 0 0 0 2.158-2.16 2.165 2.165 0 0 0-2.159-2.159Zm4.318-2.16a4.317 4.317 0 0 1-4.318-4.318A4.317 4.317 0 0 1 11.636 2a4.317 4.317 0 0 1 4.319 4.318 4.317 4.317 0 0 1-4.319 4.318Zm0-6.477a2.166 2.166 0 0 0-2.159 2.16c0 1.187.972 2.158 2.16 2.158a2.165 2.165 0 0 0 2.159-2.159 2.166 2.166 0 0 0-2.16-2.159Zm6.046 19a4.317 4.317 0 0 1-4.318-4.318 4.317 4.317 0 0 1 4.318-4.318A4.317 4.317 0 0 1 22 18.84a4.317 4.317 0 0 1-4.318 4.318Zm0-6.477c-1.188 0-2.16.971-2.16 2.159 0 1.187.972 2.159 2.16 2.159a2.166 2.166 0 0 0 2.159-2.16 2.165 2.165 0 0 0-2.16-2.158Z" fill="currentColor"/></svg>
